icons/square/48/hacknet.svg

<svg xmlns="http://www.w3.org/2000/svg" version="1.1" viewBox="0 0 48 48">
	<defs>
		<linearGradient id="bg" gradientUnits="userSpaceOnUse" x1="0" x2="0" y1="1" y2="47">
			<stop offset="0" stop-color="#363f6a"/>
			<stop offset="1" stop-color="#2f375d"/>
		</linearGradient>
	</defs>
	<path opacity=".02" d="m1 43v0.25c0 2.216 1.784 4 4 4h38c2.216 0 4-1.784 4-4v-0.25c0 2.216-1.784 4-4 4h-38c-2.216 0-4-1.784-4-4zm0 0.5v0.5c0 2.216 1.784 4 4 4h38c2.216 0 4-1.784 4-4v-0.5c0 2.216-1.784 4-4 4h-38c-2.216 0-4-1.784-4-4z"/>
	<path opacity=".05" d="m1 43.25v0.25c0 2.216 1.784 4 4 4h38c2.216 0 4-1.784 4-4v-0.25c0 2.216-1.784 4-4 4h-38c-2.216 0-4-1.784-4-4z"/>
	<path opacity=".1" d="m1 43v0.25c0 2.216 1.784 4 4 4h38c2.216 0 4-1.784 4-4v-0.25c0 2.216-1.784 4-4 4h-38c-2.216 0-4-1.784-4-4z"/>
	<rect fill="url(#bg)" rx="4" height="46" width="46" y="1" x="1"/>
	<path opacity=".1" d="m1 39v4c0 2.216 1.784 4 4 4h38c2.216 0 4-1.784 4-4v-4c0 2.216-1.784 4-4 4h-38c-2.216 0-4-1.784-4-4z"/>
	<path d="M 23,9.033370452904235 A 15,15,0,0,1,37.552618543578774,17.571428571428573 1,1,0,0,1,35.745602737768266,18.42857142857143 13,13,0,0,0,25,11.03851860318428 L 25,13.045548849896678 A 11,11,0,1,1,13.045548849896678,25 L 11.03851860318428,25 A 13,13,0,0,0,20.285714285714285,36.458093017498825 1,1,0,0,1,19.714285714285715,38.37472271249865 15,15,0,0,1,9.033370452904235,23 L 13.045548849896678,23 A 11,11,0,0,1,23,13.045548849896678 z M 24,17 A 7,7,0,0,0,24,31 7,7,0,0,0,24,17 M 24,19 A 5,5,0,0,1,24,29 5,5,0,0,1,24,19 M 24,22 A 2,2,0,0,0,24,26 2,2,0,0,0,24,22 M 35.745602737768266,29.57142857142857 A 1,1,0,0,1,37.552618543578774,30.428571428571427 15,15,0,0,1,28.285714285714285,38.37472271249865 1,1,0,0,1,27.714285714285715,36.458093017498825 13,13,0,0,0,35.745602737768266,29.57142857142857 M 37.856406460551014,21 a 1,1,0,0,1,0,2 1,1,0,0,1,0,-2 M 37.856406460551014,25 a 1,1,0,0,1,0,2 1,1,0,0,1,0,-2" opacity=".1"/>
	<path d="M 23,9.033370452904235 A 15,15,0,0,1,37.552618543578774,17.571428571428573 1,1,0,0,1,35.745602737768266,18.42857142857143 13,13,0,0,0,25,11.03851860318428 L 25,13.045548849896678 A 11,11,0,1,1,13.045548849896678,25 L 11.03851860318428,25 A 13,13,0,0,0,20.285714285714285,36.458093017498825 1,1,0,0,1,19.714285714285715,38.37472271249865 15,15,0,0,1,9.033370452904235,23 L 13.045548849896678,23 A 11,11,0,0,1,23,13.045548849896678 z M 24,17 A 7,7,0,0,0,24,31 7,7,0,0,0,24,17 M 24,19 A 5,5,0,0,1,24,29 5,5,0,0,1,24,19 M 24,22 A 2,2,0,0,0,24,26 2,2,0,0,0,24,22 M 35.745602737768266,29.57142857142857 A 1,1,0,0,1,37.552618543578774,30.428571428571427 15,15,0,0,1,28.285714285714285,38.37472271249865 1,1,0,0,1,27.714285714285715,36.458093017498825 13,13,0,0,0,35.745602737768266,29.57142857142857 M 37.856406460551014,21 a 1,1,0,0,1,0,2 1,1,0,0,1,0,-2 M 37.856406460551014,25 a 1,1,0,0,1,0,2 1,1,0,0,1,0,-2" fill="#eb2" transform="translate(0 -1)"/>
</svg>

<svg version="1.1" viewBox="0 0 48 48" xmlns="http://www.w3.org/2000/svg">
 <defs>
  <linearGradient id="bg" x2="0" y1="1" y2="47" gradientUnits="userSpaceOnUse">
   <stop stop-color="#363f6a" style="stop-color:#404973" offset="0"/>
   <stop stop-color="#2f375d" style="stop-color:#394167" offset="1"/>
  </linearGradient>
 </defs>
 <path d="m1 43v0.25c0 2.22 1.78 4 4 4h38c2.22 0 4-1.78 4-4v-0.25c0 2.22-1.78 4-4 4h-38c-2.22 0-4-1.78-4-4zm0 0.5v0.5c0 2.22 1.78 4 4 4h38c2.22 0 4-1.78 4-4v-0.5c0 2.22-1.78 4-4 4h-38c-2.22 0-4-1.78-4-4z" opacity=".02"/>
 <path d="m1 43.2v0.25c0 2.22 1.78 4 4 4h38c2.22 0 4-1.78 4-4v-0.25c0 2.22-1.78 4-4 4h-38c-2.22 0-4-1.78-4-4z" opacity=".05"/>
 <path d="m1 43v0.25c0 2.22 1.78 4 4 4h38c2.22 0 4-1.78 4-4v-0.25c0 2.22-1.78 4-4 4h-38c-2.22 0-4-1.78-4-4z" opacity=".1"/>
 <rect x="1" y="1" width="46" height="46" rx="4" fill="url(#bg)"/>
 <path d="m1 39v4c0 2.22 1.78 4 4 4h38c2.22 0 4-1.78 4-4v-4c0 2.22-1.78 4-4 4h-38c-2.22 0-4-1.78-4-4z" opacity=".1"/>
 <path d="m23 9.03a15 15 0 0 1 14.6 8.54 1 1 0 0 1-1.81 0.857 13 13 0 0 0-10.7-7.39v2.01a11 11 0 1 1-12 12h-2.01a13 13 0 0 0 9.25 11.5 1 1 0 0 1-0.571 1.92 15 15 0 0 1-10.7-15.4h4.01a11 11 0 0 1 9.95-9.95zm1 7.97a7 7 0 0 0 0 14 7 7 0 0 0 0-14m0 2a5 5 0 0 1 0 10 5 5 0 0 1 0-10m0 3a2 2 0 0 0 0 4 2 2 0 0 0 0-4m11.7 7.57a1 1 0 0 1 1.81 0.857 15 15 0 0 1-9.27 7.95 1 1 0 0 1-0.571-1.92 13 13 0 0 0 8.03-6.89m2.11-8.57a1 1 0 0 1 0 2 1 1 0 0 1 0-2m0 4a1 1 0 0 1 0 2 1 1 0 0 1 0-2" opacity=".1"/>
 <path transform="translate(0 -1)" d="m23 9.03a15 15 0 0 1 14.6 8.54 1 1 0 0 1-1.81 0.857 13 13 0 0 0-10.7-7.39v2.01a11 11 0 1 1-12 12h-2.01a13 13 0 0 0 9.25 11.5 1 1 0 0 1-0.571 1.92 15 15 0 0 1-10.7-15.4h4.01a11 11 0 0 1 9.95-9.95zm1 7.97a7 7 0 0 0 0 14 7 7 0 0 0 0-14m0 2a5 5 0 0 1 0 10 5 5 0 0 1 0-10m0 3a2 2 0 0 0 0 4 2 2 0 0 0 0-4m11.7 7.57a1 1 0 0 1 1.81 0.857 15 15 0 0 1-9.27 7.95 1 1 0 0 1-0.571-1.92 13 13 0 0 0 8.03-6.89m2.11-8.57a1 1 0 0 1 0 2 1 1 0 0 1 0-2m0 4a1 1 0 0 1 0 2 1 1 0 0 1 0-2" fill="#eb2" style="fill:#dbbb5c"/>
</svg>
